svgs/light/bridge.svg

<svg xmlns="http://www.w3.org/2000/svg" viewBox="0 0 576 512"><!--! Font Awesome Pro 6.6.0 by @fontawesome - https://fontawesome.com License - https://fontawesome.com/license (Commercial License) Copyright 2024 Fonticons, Inc. --><path d="M16 32C7.2 32 0 39.2 0 48s7.2 16 16 16l64 0 0 64-64 0c-8.8 0-16 7.2-16 16s7.2 16 16 16l80 0 128 0 128 0 128 0 80 0c8.8 0 16-7.2 16-16s-7.2-16-16-16l-64 0 0-64 64 0c8.8 0 16-7.2 16-16s-7.2-16-16-16l-80 0L352 32 224 32 96 32 16 32zM464 64l0 64-96 0 0-64 96 0zM336 64l0 64-96 0 0-64 96 0zM208 64l0 64-96 0 0-64 96 0zM16 240c-8.8 0-16 7.2-16 16s7.2 16 16 16l16 0c35.3 0 64 28.7 64 64l0 96c0 26.5 21.5 48 48 48l32 0c26.5 0 48-21.5 48-48l0-96c0-35.3 28.7-64 64-64s64 28.7 64 64l0 96c0 26.5 21.5 48 48 48l32 0c26.5 0 48-21.5 48-48l0-96c0-35.3 28.7-64 64-64l16 0c8.8 0 16-7.2 16-16s-7.2-16-16-16l-16 0c-53 0-96 43-96 96l0 96c0 8.8-7.2 16-16 16l-32 0c-8.8 0-16-7.2-16-16l0-96c0-53-43-96-96-96s-96 43-96 96l0 96c0 8.8-7.2 16-16 16l-32 0c-8.8 0-16-7.2-16-16l0-96c0-53-43-96-96-96l-16 0z"/></svg>

<svg xmlns="http://www.w3.org/2000/svg" viewBox="0 0 576 512"><!--! Font Awesome Pro 6.5.2 by @fontawesome - https://fontawesome.com License - https://fontawesome.com/license (Commercial License) Copyright 2024 Fonticons, Inc. --><path d="M16 32C7.2 32 0 39.2 0 48s7.2 16 16 16H80v64H16c-8.8 0-16 7.2-16 16s7.2 16 16 16H96 224 352 480h80c8.8 0 16-7.2 16-16s-7.2-16-16-16H496V64h64c8.8 0 16-7.2 16-16s-7.2-16-16-16H480 352 224 96 16zM464 64v64H368V64h96zM336 64v64H240V64h96zM208 64v64H112V64h96zM16 240c-8.8 0-16 7.2-16 16s7.2 16 16 16H32c35.3 0 64 28.7 64 64v96c0 26.5 21.5 48 48 48h32c26.5 0 48-21.5 48-48V336c0-35.3 28.7-64 64-64s64 28.7 64 64v96c0 26.5 21.5 48 48 48h32c26.5 0 48-21.5 48-48V336c0-35.3 28.7-64 64-64h16c8.8 0 16-7.2 16-16s-7.2-16-16-16H544c-53 0-96 43-96 96v96c0 8.8-7.2 16-16 16H400c-8.8 0-16-7.2-16-16V336c0-53-43-96-96-96s-96 43-96 96v96c0 8.8-7.2 16-16 16H144c-8.8 0-16-7.2-16-16V336c0-53-43-96-96-96H16z"/></svg>
